!!!CDT:
!!!PTL: Il primo libro de madrigali a cinque voci
!!!PPP: Venice
!!!PPR: Amadino
!!!PDT: 1588
!!!PUB-format:
!!!RISM: G 547
!!!rime: 47
!!!AGN: Madrigal
!!!SCT: Trm0047l
!!!SCA: Trm0047l
!!!original-voices: 5
!!!extant-voices: 5
!!!complete: Y
!!!final: D
!!!COM: Gastoldi, Giovanni Giacomo
!!!OTL: Non è questa la mano
**kern	**text	**kern	**text	**kern	**text	**kern	**text	**kern	**text
*part5	*part5	*part4	*part4	*part3	*part3	*part2	*part2	*part1	*part1
*staff5	*staff5	*staff4	*staff4	*staff3	*staff3	*staff2	*staff2	*staff1	*staff1
*I"Basso	*	*I"Tenore	*	*I"Alto	*	*I"Quinto	*	*I"Canto	*
*I'B	*	*I'T	*	*I'A	*	*I'V	*	*I'C	*
*oclefF3	*	*oclefC3	*	*oclefC2	*	*oclefG2	*	*oclefG2	*
*clefF4	*	*clefGv2	*	*clefG2	*	*clefG2	*	*clefG2	*
*k[b-]	*	*k[b-]	*	*k[b-]	*	*k[b-]	*	*k[b-]	*
*F:	*	*F:	*	*F:	*	*F:	*	*F:	*
*omet(C)	*	*omet(C)	*	*omet(C)	*	*omet(C)	*	*omet(C)	*
*M4/2	*	*M4/2	*	*M4/2	*	*M4/2	*	*M4/2	*
=1	=1	=1	=1	=1	=1	=1	=1	=1	=1
0r	.	1r	.	1r	.	2b-y	Non	2dd	Non
.	.	.	.	.	.	4cc	è	4ee	è
.	.	.	.	.	.	4.dd	que-	4.ff	que-
.	.	2d	Non	2f	Non	.	.	.	.
.	.	.	.	.	.	8cc	-sta	8ee	-sta
.	.	.	.	.	.	4b-y	la	4dd	la
.	.	4e	è	4g	è	4cc	ma-	2cc	ma-
.	.	[4f	que-	[4a	que-	4a	-no	.	.
=2	=2	=2	=2	=2	=2	=2	=2	=2	=2
2D	Non	8f]	.	8a]	.	4r	.	2a	-no,
.	.	8e	-sta	8g	-sta	.	.	.	.
.	.	4d	la	4f	la	4ff	Che	.	.
4E	è	2c	ma-	4g	ma-	4ee	tan-	2r	.
4.F	que-	.	.	4f	-no,	4cc	-te e	.	.
.	.	4c	-no	2r	.	4a	sì	4r	.
8E	-sta	.	.	.	.	.	.	.	.
4D	la	4f	Che	.	.	4bnX	mor-	4dd	Non
2C	ma-	4e	tan-	4r	.	4cc	-ta-	4ee	è
.	.	4c	-te e	[4g	<Non	4g	-li,	[4gg	que-
=3	=3	=3	=3	=3	=3	=3	=3	=3	=3
2C	-no	4e	sì	4g]	.	4rb	.	4gg]	.
.	.	4f	mor-	4a	è	4cc	Che	8ff	-sta
.	.	.	.	.	.	.	.	8ee	la
2r	.	1g	-ta-	2.b-y	que-	4b-i	tan-	2dd	ma-
.	.	.	.	.	.	4g	-te e	.	.
2r	.	.	.	.	.	4b-y	sì	4dd	-no
.	.	.	.	8a	-sta	4cc	mor-	4gg	Che
.	.	.	.	8g	la	.	.	.	.
4r	.	2d	-li,	2a	ma-	4dd	-ta-	4ff	tan-
4d	Che	.	.	.	.	4a	-li,	4dd	-te e
=4	=4	=4	=4	=4	=4	=4	=4	=4	=4
4c	tan-	4r	.	2a	-no,>	1r	.	4ee	sì
4A	-te e	4a	Che	.	.	.	.	4ff#X	mor-
4B-y	sì	4g	tan-	2r	.	.	.	2gg	-ta-
4c	mor-	4e	-te e	.	.	.	.	.	.
2d	-ta-	4f	sì	4r	.	4a	Non	2dd	-li,
.	.	4g	mor-	4d	Non	4bnX	è	.	.
2A	-li,	2a	-ta-	4e	è	4cc	que-	2r	.
.	.	.	.	[4f	que-	8cc	-sta	.	.
.	.	.	.	.	.	8b-i	la	.	.
=5	=5	=5	=5	=5	=5	=5	=5	=5	=5
4r	.	2d	-li,	8f]	.	4a	ma-	2dd	Non
.	.	.	.	8e	-sta	.	.	.	.
4B-y	Che	.	.	4d	la	4f	-no	.	.
4A	tan-	2r	.	4c	ma-	2r	.	4ee	è
4F	-te e	.	.	4c	-no	.	.	4.ff	que-
4A	sì	2r	.	2r	.	4r	.	.	.
.	.	.	.	.	.	.	.	8ee	-sta
4B-y	mor-	.	.	.	.	4ff	Che	4dd	la
2c	-ta-	4g	Non	4r	.	4ee	tan-	4cc	ma-
.	.	4a	è	4cc	Che	4cc	-te e	4cc	-no
=6	=6	=6	=6	=6	=6	=6	=6	=6	=6
2G	-li,	2b-y	que-	4b-y	tan-	4dd	sì	2r	.
.	.	.	.	4g	-te e	4ee	mor-	.	.
2d	Che	4a	-sta,	4a	sì	4ff	-ta-	4r	.
.	.	4d	<Non	4b-y	mor-	4dd	-li,	4ff	Che
4c	tan-	4e	è	2cc	-ta-	2r	.	4ee	tan-
4A	-te e	2f	que-	.	.	.	.	4cc	-te e
4B-y	sì	.	.	4b-y	-li,	4r	.	4dd	sì
4c	mor-	[4e	-sta	4a	Che	[4a	Non	4ee	mor-
=7	=7	=7	=7	=7	=7	=7	=7	=7	=7
2d	-ta-	4e]	.	4f	tan-	4a]	.	2ff	-ta-
.	.	4d	la	4d	-te e	4bnX	è	.	.
2A	-li,	4c	ma-	4e	sì	4cc	que-	2ee	-li,
.	.	4c	-no	4f#X	mor-	8b-i	-sta	.	.
.	.	.	.	.	.	8a	la	.	.
2B-y	Che	4r	.	4g	-ta-	4g	ma-	4r	.
.	.	4d	Che	4d	-li	4f	-no	4dd	e
4A	tan-	4c	tan-	2r	.	4r	.	4ee	sì
4F	-te e	4A	-te e	.	.	4cc	Che	4ff	mor-
=8	=8	=8	=8	=8	=8	=8	=8	=8	=8
4G	sì	4B-y	sì	2r	.	4b-i	tan-	4dd	-ta-
4A	mor-	4c	mor-	.	.	4a	-te e	4cc	-li
2B-y	-ta-	2d	-ta-	4r	.	4g	sì	4r	.
.	.	.	.	8f	A-	4f	mor-	8dd	A-
.	.	.	.	8g	-ven-	.	.	8ee	-ven-
1A	-li	2c	-li	4a	-tò	2cc	-ta-	4ff	-tò
.	.	.	.	8g	nel	.	.	8ee	nel
.	.	.	.	8f	mio	.	.	8dd	mio
.	.	4r	.	4e	cor	2a	-li	4cc	cor
.	.	4c	fia-	4e	fia-	.	.	4cc	fia-
=9	=9	=9	=9	=9	=9	=9	=9	=9	=9
2r	.	4.B-y	-mel-	8fL	-mel-	0r	.	8ddL	-mel-
.	.	.	.	8e	.	.	.	8cc	.
.	.	.	.	8f	.	.	.	8dd	.
.	.	16AL	.	8gJ	.	.	.	8eeJ	.
.	.	16GJ	.	.	.	.	.	.	.
4r	.	8FL	.	4.a	.	.	.	4.ff	.
.	.	8G	.	.	.	.	.	.	.
8F	A-	8A	.	.	.	.	.	.	.
8G	-ven-	8B-yJ	.	16gL	.	.	.	16eeL	.
.	.	.	.	16fJ	.	.	.	16ddJ	.
4A	-tò	4c	.	4e	.	.	.	8cc	.
.	.	.	.	.	.	.	.	8a	-l'e
8G	nel	4A	-l'e	4f	-l'e	.	.	2dd	stra-
8F	mio	.	.	.	.	.	.	.	.
4G	cor	4B-y	stra-	2e	stra-	.	.	.	.
4A	fia-	4A	-li,	.	.	.	.	4cc#X	.
=10	=10	=10	=10	=10	=10	=10	=10	=10	=10
4.B-y	-mel-	4r	.	1d	-li,	4r	.	1dd	-li,
.	.	8f	A-	.	.	8dd	A-	.	.
16AL	.	8g	-ven-	.	.	8ee	-ven-	.	.
16GJ	.	.	.	.	.	.	.	.	.
4F	.	4a	-tò	.	.	4ff	-tò	.	.
4G	-l'e	8g	nel	.	.	8ee	nel	.	.
.	.	8f	mio	.	.	8dd	mio	.	.
2A	stra-	4e	cor	4r	.	4cc	cor	1r	.
.	.	4e	fia-	4a	fia-	4cc	fia-	.	.
[2D	-li,	8fL	-mel-	8aL	-mel-	8ddL	-mel-	.	.
.	.	8e	.	8g	.	8cc	.	.	.
.	.	8f	.	8f	.	8dd	.	.	.
.	.	8gJ	.	8eJ	.	8eeJ	.	.	.
=11	=11	=11	=11	=11	=11	=11	=11	=11	=11
2D]	.	4.a	.	4d	.	4.ff	.	1r	.
.	.	.	.	4d	-l'e	.	.	.	.
.	.	16gL	.	.	.	16eeL	.	.	.
.	.	16fJ	.	.	.	16ddJ	.	.	.
2r	.	4e	.	2A	stra-	8ccL	.	.	.
.	.	.	.	.	.	8aJ	.	.	.
.	.	4f	-l'e	.	.	2dd	-l'e	.	.
2r	.	2e	stra-	2A	-li,	.	.	2r	.
.	.	.	.	.	.	4cc#X	stra-	.	.
4r	.	2d	-li,	2r	.	[2dd	-li,	4r	.
8B-y	A-	.	.	.	.	.	.	8dd	A-
8c	-ven-	.	.	.	.	.	.	8ee	-ven-
=12	=12	=12	=12	=12	=12	=12	=12	=12	=12
4d	-tò	4r	.	4r	.	2dd]	.	4ff	-tò
8c	nel	8d	A-	8f	A-	.	.	8ee	nel
8B-y	mio	8e	-ven-	8g	-ven-	.	.	8dd	mio
4A	cor	4f	-tò	4a	-tò	4r	.	4cc	cor
4A	fia-	8e	nel	8a	nel	4ccnXi	fia-	4cc	fia-
.	.	8e	mio	8g	mio	.	.	.	.
8B-yL	-mel-	4d	cor	4f	cor	4b-y	-mel-	8ddL	-mel-
8A	.	.	.	.	.	.	.	8cc	.
8B-y	.	4d	fia-	4f	fia-	4b-y	-l'e	8dd	.
8cJ	.	.	.	.	.	.	.	8eeJ	.
4.d	.	8dL	-mel-	8fL	-mel-	4a	stra-	4.ff	.
.	.	8c	.	8e	.	.	.	.	.
.	.	8d	.	8f	.	4a	-li?	.	.
16cL	.	8eJ	.	8gJ	.	.	.	16eeL	.
16B-yJ	.	.	.	.	.	.	.	16ddJ	.
=13	=13	=13	=13	=13	=13	=13	=13	=13	=13
4A	.	4f	.	4a	.	1r	.	8cc	.
.	.	.	.	.	.	.	.	8a	-l'e
4B-y	-l'e	4d	-l'e	4g	-l'e	.	.	2dd	stra-
2A	stra-	2e	stra-	2a	stra-	.	.	.	.
.	.	.	.	.	.	.	.	4cc#X	.
2D	-li?	1d	-li?	2f	-li?	4r	.	2dd	-li?
.	.	.	.	.	.	4.aa	Ec-	.	.
4r	.	.	.	4r	.	.	.	4r	.
.	.	.	.	.	.	8aa	-co	.	.
[4d	Ec-	.	.	[4a	Ec-	4aa	che	[4dd	Ec-
=14	=14	=14	=14	=14	=14	=14	=14	=14	=14
8d]	.	4r	.	8a]	.	2ff	pur	8dd]	.
8d	-co	.	.	8a	-co	.	.	8dd	-co
4d	che	4.f	Ec-	4a	che	.	.	4dd	che
4B-y	pur	.	.	2.b-y	pur	4ff	si	4dd	pur
.	.	8f	-co	.	.	.	.	.	.
4B-y	si	4d	che	.	.	4.gg	tro-	4dd	si
1c	tro-	4e	pur	.	.	.	.	1cc	tro-
.	.	.	.	.	.	8ff	.	.	.
.	.	4f	si	4a	si	2ff	.	.	.
.	.	2g	tro-	2g	tro-	.	.	.	.
.	.	.	.	.	.	4ee	.	.	.
=15	=15	=15	=15	=15	=15	=15	=15	=15	=15
1F	-va,	2f	-va	0a	-va,	2ff	-va	1cc	-va
.	.	4r	.	.	.	4r	.	.	.
.	.	4f	Fra	.	.	4ff	Fra	.	.
1r	.	4c	le	.	.	4ee	le	4r	.
.	.	4d	mie	.	.	4dd	mie	4ff	Fra
.	.	[2a	man	.	.	4cc	man	4ee	le
.	.	.	.	.	.	4ff	ri-	4dd	mie
=16	=16	=16	=16	=16	=16	=16	=16	=16	=16
1r	.	4a]	.	1r	.	4ee	-stret-	4cc	man
.	.	4d	ri-	.	.	2dd	.	4ff	ri-
.	.	2a	-stret-	.	.	.	.	2ee	-stret-
.	.	.	.	.	.	4cc#X	.	.	.
2r	.	1d	-ta,	4r	.	2dd	-ta,	2dd	-ta,
.	.	.	.	4.a	Ec-	.	.	.	.
4r	.	.	.	.	.	4r	.	4r	.
.	.	.	.	8a	-co	.	.	.	.
[4d	Ec-	.	.	4a	che	[4a	Ec-	[4ff	Ec-
=17	=17	=17	=17	=17	=17	=17	=17	=17	=17
8d]	.	4r	.	2f	pur	8a]	.	8ff]	.
8d	-co	.	.	.	.	8a	-co	8ff	-co
4d	che	4.f	Ec-	.	.	4a	che	4ff	che
4B-y	pur	.	.	4f	si	2.b-y	pur	4dd	pur
.	.	8f	-co	.	.	.	.	.	.
4B-y	si	4d	che	4.g	tro-	.	.	4dd	si
1c	tro-	4e	pur	.	.	.	.	2cc	tro-
.	.	.	.	8f	.	.	.	.	.
.	.	4f	si	2f	.	4a	si	.	.
.	.	2g	tro-	.	.	2g	tro-	2cc	-va
.	.	.	.	4e	.	.	.	.	.
=18	=18	=18	=18	=18	=18	=18	=18	=18	=18
2F	-va	4f	-va	4f	-va	4a	-va	4r	.
.	.	4f	Fra	4a	Fra	4cc	Fra	4ff	Fra
2r	.	4c	le	4g	le	4cc	le	4ee	le
.	.	4d	mie	4f	mie	4a	mie	4dd	mie
4r	.	4A	man,	4e	man,	4a	man,	2cc	man,
4F	Fra	4a	<Fra	4cc	<Fra	4ff	Fra	.	.
4C	le	4g	le	4cc	le	4ee	le	4r	.
4D	mie	4f	mie	4a	mie	4dd	mie	4ff	<Fra
=19	=19	=19	=19	=19	=19	=19	=19	=19	=19
2.A	man	4c	man,>	8aL	man>	4cc	man	4ee	le
.	.	.	.	8g	.	.	.	.	.
.	.	4f	Fra	8a	.	4a	ri-	4dd	mie
.	.	.	.	8b-yJ	.	.	.	.	.
.	.	4e	le	4cc	.	4a	-stret-	4cc	man>
4D	ri-	4d	mie	4a	ri-	4a	-ta,	4ff	ri-
1A	-stret-	4c	man	1a	-stret-	4r	.	4ee	-stret-
.	.	4f	ri-	.	.	4a	ri-	2dd	.
.	.	2e	-stret-	.	.	2a	-stret-	.	.
.	.	.	.	.	.	.	.	4cc#X	.
=20	=20	=20	=20	=20	=20	=20	=20	=20	=20
2D	-ta	1d	-ta	1f#X	-ta	2a	-ta	1dd	-ta
2d	Né	.	.	.	.	4r	.	.	.
.	.	.	.	.	.	4dd	Né	.	.
4c	for-	2r	.	2r	.	4ee	for-	1r	.
4A	-z'od	.	.	.	.	4ff	-z'od	.	.
2B-y	ar-	4r	.	4r	.	2dd	ar-	.	.
.	.	8d	per	8fnXi	per	.	.	.	.
.	.	8e	fug-	8g	fug-	.	.	.	.
=21	=21	=21	=21	=21	=21	=21	=21	=21	=21
2A	-te	4f	-gir	4a	-gir	2cc	-te	0r	.
.	.	4e	le	4cc	le	.	.	.	.
4G	per	2g	gio-	2b-y	gio-	4r	.	.	.
4G	fug-	.	.	.	.	8dd	per	.	.
.	.	.	.	.	.	8ee	fug-	.	.
8FL	-gir	1c	-va,	2a	-va,	4ff	-gir	.	.
8G	.	.	.	.	.	.	.	.	.
8A	.	.	.	.	.	4ff	le	.	.
8B-yJ	.	.	.	.	.	.	.	.	.
4c	.	.	.	4r	.	2ee	gio-	.	.
4A	le	.	.	8a	per	.	.	.	.
.	.	.	.	8g	fug-	.	.	.	.
=22	=22	=22	=22	=22	=22	=22	=22	=22	=22
2B-y	gio-	4r	.	4f	-gir	2dd	-va,	4r	.
.	.	8f	<per	4d	le	.	.	4dd	Né
.	.	8g	fug-	.	.	.	.	.	.
2A	-va,	4a	-gir	4e	gio-	2r	.	4cc	for-
.	.	4a	le	4f#X	.	.	.	4a	-z'od
4r	.	4g	gio-	2g	-va,	4r	.	2b-y	ar-
8B-y	per	4d	-va,>	.	.	8dd	per	.	.
8c	fug-	.	.	.	.	8ee	fug-	.	.
4d	-gir,	4r	.	4r	.	[2ff	-gir	2a	-te
8D	per	4d	Né	8fnXi	<per	.	.	.	.
8E	fug-	.	.	8g	fug-	.	.	.	.
=23	=23	=23	=23	=23	=23	=23	=23	=23	=23
4F	-gir	4c	for-	4a	-gir	4ff]	.	2r	.
4A	le	4A	-z'od	4cc	le	4ee	le	.	.
2G	gio-	2B-y	ar-	4b-y	gio-	2gg	gio-	4r	.
.	.	.	.	4g	-va,>	.	.	8dd	per
.	.	.	.	.	.	.	.	8ee	fug-
2F	-va,	2A	-te	2r	.	2cc	-va,	4ff	-gir
.	.	.	.	.	.	.	.	4ff	le
2r	.	4r	.	2a	Né	4r	.	[2ee	gio-
.	.	8A	per	.	.	8cc	<per	.	.
.	.	8B-y	fug-	.	.	8dd	fug-	.	.
=24	=24	=24	=24	=24	=24	=24	=24	=24	=24
2r	.	4c	-gir	4g	for-	4ee	-gir	2ee]	.
.	.	4c	le	4e	-z'od	4gg	le	.	.
4r	.	2d	gio-	2f	ar-	4ff	gio-	2dd	-va,
8F	per	.	.	.	.	4dd	-va,>	.	.
8G	fug-	.	.	.	.	.	.	.	.
4A	-gir	2c	-va,	4e	-te	2r	.	4r	.
4c	le	.	.	8e	per	.	.	8g	<per
.	.	.	.	8f	fug-	.	.	8a	fug-
2B-y	gio-	4r	.	4g	-gir	4r	.	4b-y	-gir
.	.	8f	per	4f	le	8dd	per	4dd	le
.	.	8g	fug-	.	.	8ee	fug-	.	.
=25	=25	=25	=25	=25	=25	=25	=25	=25	=25
0A	-va,	4.a	-gir	2c	gio-	4ff	-gir	2cc	gio-
.	.	.	.	.	.	2ee	le	.	.
.	.	8g	.	.	.	.	.	.	.
.	.	4f	.	4c	-va,	.	.	2a	-va,>
.	.	4f	le	8f	per	2dd	gio-	.	.
.	.	.	.	8g	fug-	.	.	.	.
.	.	1e	gio-	4a	-gir	.	.	2r	.
.	.	.	.	4a	le	8cc#XL	.	.	.
.	.	.	.	.	.	8bnXJ	.	.	.
.	.	.	.	2a	gio-	2cc#X	.	4r	.
.	.	.	.	.	.	.	.	4a	le
=26	=26	=26	=26	=26	=26	=26	=26	=26	=26
2r	.	1d	-va,	2f#X	-va,	2dd	-va,	2a	gio-
2d	Né	.	.	4r	.	4r	.	4f#X	-va,
.	.	.	.	4a	Né	4ff	Né	4dd	Né
4A	tien	1r	.	4a	tien	4ee	tien	4cc	tien
4.B-y	fa-	.	.	4.fnXi	fa-	4.dd	fa-	4.b-y	fa-
8B-y	-ce o	.	.	8f	-ce o	8dd	-ce o	8b-y	-ce o
4F	sa-	.	.	4f	sa-	4ccnXi	sa-	4a	sa-
=27	=27	=27	=27	=27	=27	=27	=27	=27	=27
8GL	-et-	2r	.	2d	-et-	2b-y	-et-	2g	-et-
8A	.	.	.	.	.	.	.	.	.
8B-y	.	.	.	.	.	.	.	.	.
8cJ	.	.	.	.	.	.	.	.	.
2d	.	4r	.	2d	-ta	4a	-ta	4f	-ta
.	.	2a	Che	.	.	2dd	Che	2ff	Che
2A	-ta	.	.	4r	.	.	.	.	.
.	.	4a	da	2a	Che	4cc	da	4ee	da
2r	.	2d	me	.	.	2ff	me	2dd	me
.	.	.	.	4a	da	.	.	.	.
=28	=28	=28	=28	=28	=28	=28	=28	=28	=28
0r	.	4f	la	4d	me	4ff	la	4dd	la
.	.	4c	dif-	2g	la	4ee	dif-	4cc	dif-
.	.	4.d	-fen-	.	.	1dd	-fen-	8b-yL	-fen-
.	.	.	.	.	.	.	.	8aJ	.
.	.	.	.	4f	dif-	.	.	2a	.
.	.	8c	.	.	.	.	.	.	.
.	.	2B-y	.	2d	-fen-	.	.	.	.
.	.	.	.	.	.	.	.	4g	.
.	.	2A	-da.	2e	-da.	2cc#X	-da.	2a	-da.
=29	=29	=29	=29	=29	=29	=29	=29	=29	=29
2.F	Giu-	4r	.	4r	.	4r	.	4r	.
.	.	2a	Giu-	4.f	Giu-	2ff	Giu-	2cc	Giu-
.	.	.	.	8f	-st'è	.	.	.	.
4F	-st'è	4a	-st'è	4f	ben	4ff	-st'è	4cc	-st'è
2C	ben	2g	ben	4g	ch'io	2ee	ben	2cc	ben
.	.	.	.	4e	ne	.	.	.	.
4D	ch'io	4f	ch'io	4f	pren-	4dd	ch'io	4a	ch'io
4D	ne	4f	ne	4d	-da,	4dd	ne	4a	ne
=30	=30	=30	=30	=30	=30	=30	=30	=30	=30
2A	pren-	2e	pren-	4r	.	2cc#X	pren-	2a	pren-
.	.	.	.	4e	A-	.	.	.	.
4A	-da,	4e	-da,	2a	-mor,	4cc#i	-da,	4a	-da,
4d	A-	4f	A-	.	.	4dd	A-	4a	A-
4c	-mor,	4g	-mor,	1r	.	4ee	-mor,	4cc	-mor,
4.F	qual-	4.a	qual-	.	.	4.ff	qual-	4.cc	qual-
8C	-che	8g	-che	.	.	8ee	-che	8cc	-che
4D	ven-	4f	ven-	.	.	4dd	ven-	4a	ven-
=31	=31	=31	=31	=31	=31	=31	=31	=31	=31
2A	-det-	2e	-det-	4r	.	2cc#X	-det-	4a	-det-
.	.	.	.	4e	A-	.	.	4a	-ta,-
2D	-ta,	2d	-ta,	4a	-mor,	4dd	-ta,	4r	.
.	.	.	.	4.f	qual-	4.aa	qual-	4.ff	-qual-
1r	.	2r	.	.	.	.	.	.	.
.	.	.	.	8c	-che	8gg	-che	8ee	-che
.	.	.	.	4d	ven-	4ff	ven-	4dd	ven-
.	.	4r	.	2a	-det-	2ee	-det-	2cc#X	-det-
.	.	[4a	E	.	.	.	.	.	.
=32	=32	=32	=32	=32	=32	=32	=32	=32	=32
4r	.	4a]	.	1d	-ta,	1ff#X	-ta,	0dd	-ta,
2d	E	4a	se	.	.	.	.	.	.
.	.	1a	pia-	.	.	.	.	.	.
4d	se	.	.	.	.	.	.	.	.
1d	pia-	.	.	2r	.	1r	.	.	.
.	.	4g	-ghe	4r	.	.	.	.	.
.	.	4f	mi	4f	ba-	.	.	.	.
=33	=33	=33	=33	=33	=33	=33	=33	=33	=33
4c	-ghe	2e	diè,	4g	-ci	2r	.	0r	.
4B-y	mi	.	.	4g	le	.	.	.	.
2A	diè	4r	.	2a	ren-	4r	.	.	.
.	.	2f	E	.	.	2aa	E	.	.
2r	.	.	.	2d	-da,	.	.	.	.
.	.	4f	se	.	.	4aa	se	.	.
2F	ba-	2f	pia-	2r	.	2aa	pia-	.	.
=34	=34	=34	=34	=34	=34	=34	=34	=34	=34
4G	-ci	4e	-ghe	2r	.	4gg	-ghe	1r	.
4G	le	4d	mi	.	.	4ff	mi	.	.
2A	ren-	2c#X	diè	4r	.	2ee	diè	.	.
.	.	.	.	2a	E	.	.	.	.
1D	-da,	1r	.	.	.	4r	.	4r	.
.	.	.	.	4a	se	4.ff	ba-	2dd	E
.	.	.	.	2a	pia-	.	.	.	.
.	.	.	.	.	.	8eeL	.	.	.
.	.	.	.	.	.	8dd	.	4dd	se
.	.	.	.	.	.	8ccJ	.	.	.
=35	=35	=35	=35	=35	=35	=35	=35	=35	=35
0r	.	4r	.	4g	-ghe	2b-y	.	2dd	pia-
.	.	4B-y	ba-	4f	mi	.	.	.	.
.	.	4c	-ci	2e	diè	4a	-ci	4cc	-ghe
.	.	4c	le	.	.	4g	le	4b-y	mi
.	.	2d	ren-	4r	.	2dd	ren-	2a	diè
.	.	.	.	4f	ba-	.	.	.	.
.	.	2G	-da,	4g	-ci	2dd	-da,	4r	.
.	.	.	.	4g	le	.	.	4b-y	ba-
=36	=36	=36	=36	=36	=36	=36	=36	=36	=36
4r	.	1r	.	2a	ren-	4r	.	4cc	-ci
2F	ba-	.	.	.	.	2ff	E	4cc	le
.	.	.	.	1d	-da,	.	.	2dd	ren-
2G	-ci	.	.	.	.	4dd	se	.	.
.	.	2B-y	ba-	.	.	2gg	pia-	2g	-da,
4G	le	.	.	.	.	.	.	.	.
2A	ren-	4c	-ci	4r	.	4ff	-ghe	2r	.
.	.	4c	le	[4a	E	4ee	mi	.	.
=37	=37	=37	=37	=37	=37	=37	=37	=37	=37
1D	-da,	2d	ren-	4a]	.	4dd	diè	4r	.
.	.	.	.	4a	se	4.ff#X	ba-	2dd	E
.	.	2d	-da,	2a	pia-	.	.	.	.
.	.	.	.	.	.	8ff#i	-ci	.	.
.	.	.	.	.	.	4ff#i	le	4dd	se
1G	ba-	2r	.	4g	-ghe	4gg	ren-	2dd	pia-
.	.	.	.	4f	mi	4dd	-da,	.	.
.	.	2g	ba-	4e	diè	4r	.	4cc	-ghe
.	.	.	.	4d	ba-	4b-y	ba-	4b-y	mi
=38	=38	=38	=38	=38	=38	=38	=38	=38	=38
2F	-ci	4c	-ci	4.f	-ci	4cc	-ci	4a	diè
.	.	4c	le	.	.	4cc	le	2aa	ba-
.	.	.	.	8g	le	.	.	.	.
2D	le	4f	ren-	2a	ren-	2.dd	ren-	.	.
.	.	8eL	.	.	.	.	.	8gg	-ci
.	.	8dJ	.	.	.	.	.	8ff	le
1A	ren-	1e	.	[1al	-da.	.	.	1ee	ren-
.	.	.	.	.	.	8cc#XL	.	.	.
.	.	.	.	.	.	8bnXJ	.	.	.
.	.	.	.	.	.	2cc#X	.	.	.
=39	=39	=39	=39	=39	=39	=39	=39	=39	=39
0Dl	-da.	0dl	-da.	0a]	.	0ddl	-da.	0ff#Xl	-da.
==	==	==	==	==	==	==	==	==	==
*-	*-	*-	*-	*-	*-	*-	*-	*-	*-
!!!system-decoration: [*]
!!!RDF**kern: i = editorial accidental
!!!RDF**kern: l = terminal long
!!!ENC: Emiliano Ricciardi
!!!END: 2019/08/08
!!!EED: Ricciardi, Emiliano
!!!EEV: 2019/08/08
!!!YEC: Copyright 2018 Emiliano Ricciardi, All Rights Reserved
!!!ONB: Translated from MusicXML on 2019/08/08 and edited by Craig Stuart Sapp
!!@@BEGIN:	VERSEDATA
!!@SOLERTI:	47
!!@CATALOGNUM:	Trm0047
!!@LAST_MODIFIED: 2020/07/12
!!@TITLE:		Non è questa la mano
!!@GENRE:		madrigale/ballata
!!@MANUSRC:	Amz, Brn, C, E<sub>1</sub>, F<sub>2</sub>, I<sub>3</sub>, M<sub>7</sub>, P<sub>4</sub>, Tr<sub>2</sub>, V<sub>8</sub>, V<sub>13/E1</sub>
!!@PRINTSRC:	8, 9, 11, 12, 13, 15, 20, 24, 29, 33, 67, 145
!!@@BEGIN:	VERSES
!!@ABOUTIT:	Ballando con la sua donna desidera di fare amorosa vendetta de la sua mano ch’egli teneva stretta.
!!@ABOUTEN:	Dancing with his lady, he desires to take amorous revenge on the hand he held tight.
!!@EDITOR:	Solerti, Angelo
!!@EDITION_TITLE: Le Rime di Torquato Tasso
!!@EDITION_LOC:	Bologna
!!@EDITION_PUB:	Romagnoli-Dall’Acqua
!!@EDITION_DATE:  1898-1902
!!@EDITION_VOL:	2
!!@EDITION_PAGE:  71
!!@TRANSLATOR:	Emiliano Ricciardi and Amyrose McCue Gill
!!@VERSE:
!!	Non è questa la mano
!!	Che tante e sì mortali
!!	Avventò nel mio cor fiammelle e strali?
!!	Ecco che pur si trova
!!	Fra le mie man ristretta
!!	Né forza od arte per fuggir le giova,
!!	Né tien face o saetta
!!	Che da me la difenda.
!!	Giusto è ben ch'io ne prenda,
!!	Amor, qualche vendetta,
!!	E se piaghe mi diè baci le renda.
!!@TVERSE:
!!	Is this not the hand
!!	That so many and truly fatal
!!	Flames and arrows hurled at my heart?
!!	Yet here it is, to be found
!!	Held fast between my hands,
!!	Neither strength nor craft can help it escape,
!!	Nor does it hold a torch or a spear
!!	To defend her against me.
!!	It is just that I take,
!!	Love, some kind of revenge,
!!	And if she gave me wounds, may I give her kisses.
!!@@END:		VERSES
!!@OTHER_CRIT_ED:   Torquato Tasso, <i>Rime d’amore (secondo il codice
!!		Chigiano L VIII 302)</i>, eds. Franco Gavazzeni and
!!		Vercingetorige Martignone, vol. 4 of <i>Edizione
!!		Nazionale delle opere di Torquato Tasso</i>
!!		(Alessandria: Edizioni Dell’Orso, 2004), 34.
!!@ATTRIBUTION_ABOUT:	Secure
!!		<br>
!!		Among other authoritative sources (see Literary
!!		Sources), this poem appears in the autograph Chigiano
!!		L.VIII.302 (Biblioteca Vaticana, Rome), compiled
!!		around 1584&ndash;85.
!!@DATING:	Before 1579
!!		<br>
!!		Although Solerti dates this poem to the early 1560s,
!!		there is no hard evidence to support this dating.
!!		The earliest written testimony of “Non è questa la
!!		mano” is Benedetto Pallavicino’s musical setting,
!!		published in 1579 (Trm0047a).
!!@DEDICATEE:	Bendidio, Lucrezia
!!@DEDICATEE_INFO:
!!		In the autograph Chigiano L.VIII.302 (Biblioteca
!!		Vaticana, Rome), this poem appears among those
!!		addressed to Tasso’s <i>primo amore</i> (first love),
!!		identified as the Ferrarese singer and noblewoman
!!		<a target="_new" href="http://www.treccani.it/enciclopedia/lucrezia-bendidio_%28Dizionario-Biografico%29">Lucrezia Bendidio</a>
!!		(1547&ndash;after 1584). The poem itself, however, does not mention Lucrezia.
!!		As [Anthony Newcomb] {footnote: Anthony Newcomb, “The Ballata and the ‘Free’ Madrigal in
!!		the Second Half of the Sixteenth Century,” Journal
!!		of the American Musicological Society, vol. 63, no.
!!		3 (Fall 2010): 433&ndash;34.} has pointed out, this poem belongs to the
!!		hybrid genre of the ballata-madrigale.  More
!!		specifically, the opening tercet recalls the
!!		<i>ripresa</i> of a ballata, the central section
!!		the <i>piedi</i> (two pairs of <i>settenarii</i>
!!		separated by an <i>endecasillabo</i>), and the final
!!		tercet the <i>volta</i>. The poem is extremely rich
!!		of references to <i>topoi</i> that resonated with
!!		the culture of the time, such as courtly dance and
!!		the female hand–the latter is especially common in
!!		late sixteenth-century lyric poetry (see <i>Rime</i>
!!		315, 571, and 862). Counting 23 settings (see Musical
!!		Settings), “Non è questa la mano” is second only
!!		to “Ardi e gela a tua voglia” (<i>Rime</i> 418),
!!		whose musical fortune, however, is tied to that of
!!		Guarini’s <i>proposta</i> “Ardo sì, ma non t’amo.”
!!@@END:		VERSEDATA
!!@@BEGIN:	SETTING
!!@CATALOGNUM:	Trm0047l
!!@RIMETITLE:	Non è questa la mano
!!@SOLERTI:	47
!!@COMPOSER:	Gastoldi, Giovanni Giacomo
!!@PRINCEPSTITLE:	Il primo libro de madrigali a cinque voci
!!@PRINCEPSLOC:	Venetia
!!@NORMLOC:	Venice
!!@NORMPUB:	Amadino
!!@NORMPUBSHORT:	Amadino
!!@PRINCEPSPUB:	Amadino
!!@PRINCEPSYEAR:	1588
!!@PRINCEPSRISM:	G 547
!!@REPRINTS:	
!!@OVOICES:	5
!!@EXTANTVOICES:	5
!!@PARTBOOKS:	
!!@EXTPARTBOOKS:	
!!@OCLEFS:	G2,G2,C2,C3,F3
!!@OMENSURATION:	C
!!@OKEYSIG:	b-
!!@FINAL:	D
!!@TIMPEDITOR:	Ricciardi, Emiliano
!!@NOTE:		
!!@@END:		SETTING
